images/50816746.svg

<?xml version="1.0" encoding="UTF-8"?>
<svg xmlns="http://www.w3.org/2000/svg" xmlns:xlink="http://www.w3.org/1999/xlink" width="300pt" height="300pt" viewBox="0 0 300 300" version="1.1">
<defs>
<g>
<symbol overflow="visible" id="glyph0-0">
<path style="stroke:none;" d="M 0.546875 1.9375 L 0.546875 -7.75 L 6.046875 -7.75 L 6.046875 1.9375 Z M 1.171875 1.328125 L 5.4375 1.328125 L 5.4375 -7.140625 L 1.171875 -7.140625 Z M 1.171875 1.328125 "/>
</symbol>
<symbol overflow="visible" id="glyph0-1">
<path style="stroke:none;" d="M 7.078125 -7.40625 L 7.078125 -6.25 C 6.710938 -6.59375 6.320312 -6.847656 5.90625 -7.015625 C 5.5 -7.179688 5.0625 -7.265625 4.59375 -7.265625 C 3.675781 -7.265625 2.972656 -6.984375 2.484375 -6.421875 C 2.003906 -5.867188 1.765625 -5.0625 1.765625 -4 C 1.765625 -2.945312 2.003906 -2.140625 2.484375 -1.578125 C 2.972656 -1.015625 3.675781 -0.734375 4.59375 -0.734375 C 5.0625 -0.734375 5.5 -0.816406 5.90625 -0.984375 C 6.320312 -1.148438 6.710938 -1.40625 7.078125 -1.75 L 7.078125 -0.625 C 6.703125 -0.363281 6.300781 -0.164062 5.875 -0.03125 C 5.457031 0.09375 5.007812 0.15625 4.53125 0.15625 C 3.320312 0.15625 2.367188 -0.210938 1.671875 -0.953125 C 0.972656 -1.703125 0.625 -2.71875 0.625 -4 C 0.625 -5.289062 0.972656 -6.304688 1.671875 -7.046875 C 2.367188 -7.796875 3.320312 -8.171875 4.53125 -8.171875 C 5.007812 -8.171875 5.460938 -8.101562 5.890625 -7.96875 C 6.316406 -7.84375 6.710938 -7.65625 7.078125 -7.40625 Z M 7.078125 -7.40625 "/>
</symbol>
<symbol overflow="visible" id="glyph0-2">
<path style="stroke:none;" d="M 1.03125 -8.359375 L 2.03125 -8.359375 L 2.03125 0 L 1.03125 0 Z M 1.03125 -8.359375 "/>
</symbol>
<symbol overflow="visible" id="glyph0-3">
<path style="stroke:none;" d="M 1.078125 -8.015625 L 2.546875 -8.015625 L 6.09375 -1.3125 L 6.09375 -8.015625 L 7.15625 -8.015625 L 7.15625 0 L 5.6875 0 L 2.125 -6.703125 L 2.125 0 L 1.078125 0 Z M 1.078125 -8.015625 "/>
</symbol>
<symbol overflow="visible" id="glyph0-4">
<path style="stroke:none;" d="M 1.078125 -8.015625 L 2.171875 -8.015625 L 2.171875 -4.734375 L 6.109375 -4.734375 L 6.109375 -8.015625 L 7.1875 -8.015625 L 7.1875 0 L 6.109375 0 L 6.109375 -3.8125 L 2.171875 -3.8125 L 2.171875 0 L 1.078125 0 Z M 1.078125 -8.015625 "/>
</symbol>
<symbol overflow="visible" id="glyph0-5">
<path style="stroke:none;" d="M 4.328125 -7.28125 C 3.546875 -7.28125 2.921875 -6.984375 2.453125 -6.390625 C 1.992188 -5.804688 1.765625 -5.007812 1.765625 -4 C 1.765625 -2.988281 1.992188 -2.1875 2.453125 -1.59375 C 2.921875 -1.007812 3.546875 -0.71875 4.328125 -0.71875 C 5.117188 -0.71875 5.742188 -1.007812 6.203125 -1.59375 C 6.660156 -2.1875 6.890625 -2.988281 6.890625 -4 C 6.890625 -5.007812 6.660156 -5.804688 6.203125 -6.390625 C 5.742188 -6.984375 5.117188 -7.28125 4.328125 -7.28125 Z M 4.328125 -8.171875 C 5.453125 -8.171875 6.351562 -7.789062 7.03125 -7.03125 C 7.707031 -6.28125 8.046875 -5.269531 8.046875 -4 C 8.046875 -2.738281 7.707031 -1.726562 7.03125 -0.96875 C 6.351562 -0.21875 5.453125 0.15625 4.328125 0.15625 C 3.203125 0.15625 2.300781 -0.21875 1.625 -0.96875 C 0.957031 -1.71875 0.625 -2.726562 0.625 -4 C 0.625 -5.269531 0.957031 -6.28125 1.625 -7.03125 C 2.300781 -7.789062 3.203125 -8.171875 4.328125 -8.171875 Z M 4.328125 -8.171875 "/>
</symbol>
</g>
</defs>
<g id="surface24305">
<rect x="0" y="0" width="300" height="300" style="fill:rgb(100%,100%,100%);fill-opacity:1;stroke:none;"/>
<path style="fill:none;stroke-width:1.2;stroke-linecap:butt;stroke-linejoin:miter;stroke:rgb(0%,80%,0%);stroke-opacity:1;stroke-miterlimit:10;" d="M 192.339844 183.867188 L 181.753906 176.042969 "/>
<path style="fill:none;stroke-width:1.2;stroke-linecap:butt;stroke-linejoin:miter;stroke:rgb(0%,0%,0%);stroke-opacity:1;stroke-miterlimit:10;" d="M 181.753906 176.042969 L 171.167969 168.21875 "/>
<path style=" stroke:none;fill-rule:nonzero;fill:rgb(100%,100%,100%);fill-opacity:1;" d="M 187.339844 177.367188 L 198.339844 177.367188 L 198.339844 190.367188 L 187.339844 190.367188 Z M 187.339844 177.367188 "/>
<g style="fill:rgb(0%,80%,0%);fill-opacity:1;">
  <use xlink:href="#glyph0-1" x="187.339844" y="187.268555"/>
  <use xlink:href="#glyph0-2" x="194.791016" y="187.268555"/>
</g>
<path style="fill:none;stroke-width:1.2;stroke-linecap:butt;stroke-linejoin:miter;stroke:rgb(0%,0%,0%);stroke-opacity:1;stroke-miterlimit:10;" d="M 171.167969 168.21875 L 147.03125 178.726562 "/>
<path style="fill:none;stroke-width:1.2;stroke-linecap:butt;stroke-linejoin:miter;stroke:rgb(0%,0%,0%);stroke-opacity:1;stroke-miterlimit:10;" d="M 166.285156 163.589844 L 146.972656 171.996094 "/>
<path style="fill:none;stroke-width:1.2;stroke-linecap:butt;stroke-linejoin:miter;stroke:rgb(0%,0%,0%);stroke-opacity:1;stroke-miterlimit:10;" d="M 174.136719 142.058594 L 171.167969 168.21875 "/>
<path style="fill:none;stroke-width:1.2;stroke-linecap:butt;stroke-linejoin:miter;stroke:rgb(0%,0%,0%);stroke-opacity:1;stroke-miterlimit:10;" d="M 147.03125 178.726562 L 125.863281 163.078125 "/>
<path style="fill:none;stroke-width:1.2;stroke-linecap:butt;stroke-linejoin:miter;stroke:rgb(0%,0%,0%);stroke-opacity:1;stroke-miterlimit:10;" d="M 125.863281 163.078125 L 113.792969 168.332031 "/>
<path style="fill:none;stroke-width:1.2;stroke-linecap:butt;stroke-linejoin:miter;stroke:rgb(0%,0%,100%);stroke-opacity:1;stroke-miterlimit:10;" d="M 113.792969 168.332031 L 101.726562 173.589844 "/>
<path style="fill:none;stroke-width:1.2;stroke-linecap:butt;stroke-linejoin:miter;stroke:rgb(0%,0%,0%);stroke-opacity:1;stroke-miterlimit:10;" d="M 125.863281 163.078125 L 128.832031 136.921875 "/>
<path style="fill:none;stroke-width:1.2;stroke-linecap:butt;stroke-linejoin:miter;stroke:rgb(0%,0%,0%);stroke-opacity:1;stroke-miterlimit:10;" d="M 132.316406 161.160156 L 134.6875 140.234375 "/>
<path style="fill:none;stroke-width:1.2;stroke-linecap:butt;stroke-linejoin:miter;stroke:rgb(0%,0%,100%);stroke-opacity:1;stroke-miterlimit:10;" d="M 101.726562 173.589844 L 91.140625 165.765625 "/>
<path style="fill:none;stroke-width:1.2;stroke-linecap:butt;stroke-linejoin:miter;stroke:rgb(0%,0%,0%);stroke-opacity:1;stroke-miterlimit:10;" d="M 91.140625 165.765625 L 80.554688 157.941406 "/>
<path style=" stroke:none;fill-rule:nonzero;fill:rgb(100%,100%,100%);fill-opacity:1;" d="M 93.726562 167.089844 L 110.726562 167.089844 L 110.726562 180.089844 L 93.726562 180.089844 Z M 93.726562 167.089844 "/>
<g style="fill:rgb(0%,0%,100%);fill-opacity:1;">
  <use xlink:href="#glyph0-3" x="93.726562" y="176.991211"/>
  <use xlink:href="#glyph0-4" x="101.709961" y="176.991211"/>
</g>
<path style="fill:none;stroke-width:1.2;stroke-linecap:butt;stroke-linejoin:miter;stroke:rgb(0%,0%,0%);stroke-opacity:1;stroke-miterlimit:10;" d="M 80.554688 157.941406 L 83.523438 131.78125 "/>
<path style="fill:none;stroke-width:1.2;stroke-linecap:butt;stroke-linejoin:miter;stroke:rgb(0%,0%,0%);stroke-opacity:1;stroke-miterlimit:10;" d="M 74.699219 154.625 L 77.074219 133.699219 "/>
<path style="fill:none;stroke-width:1.2;stroke-linecap:butt;stroke-linejoin:miter;stroke:rgb(0%,0%,0%);stroke-opacity:1;stroke-miterlimit:10;" d="M 56.417969 168.449219 L 80.554688 157.941406 "/>
<path style="fill:none;stroke-width:1.2;stroke-linecap:butt;stroke-linejoin:miter;stroke:rgb(0%,0%,0%);stroke-opacity:1;stroke-miterlimit:10;" d="M 83.523438 131.78125 L 62.355469 116.132812 "/>
<path style="fill:none;stroke-width:1.2;stroke-linecap:butt;stroke-linejoin:miter;stroke:rgb(0%,0%,0%);stroke-opacity:1;stroke-miterlimit:10;" d="M 62.355469 116.132812 L 38.21875 126.640625 "/>
<path style="fill:none;stroke-width:1.2;stroke-linecap:butt;stroke-linejoin:miter;stroke:rgb(0%,0%,0%);stroke-opacity:1;stroke-miterlimit:10;" d="M 62.414062 122.863281 L 43.105469 131.269531 "/>
<path style="fill:none;stroke-width:1.2;stroke-linecap:butt;stroke-linejoin:miter;stroke:rgb(0%,0%,0%);stroke-opacity:1;stroke-miterlimit:10;" d="M 38.21875 126.640625 L 35.25 152.800781 "/>
<path style="fill:none;stroke-width:1.2;stroke-linecap:butt;stroke-linejoin:miter;stroke:rgb(0%,0%,0%);stroke-opacity:1;stroke-miterlimit:10;" d="M 35.25 152.800781 L 56.417969 168.449219 "/>
<path style="fill:none;stroke-width:1.2;stroke-linecap:butt;stroke-linejoin:miter;stroke:rgb(0%,0%,0%);stroke-opacity:1;stroke-miterlimit:10;" d="M 41.050781 149.382812 L 57.984375 161.902344 "/>
<path style="fill:none;stroke-width:1.2;stroke-linecap:butt;stroke-linejoin:miter;stroke:rgb(0%,0%,0%);stroke-opacity:1;stroke-miterlimit:10;" d="M 56.417969 168.449219 L 53.453125 194.605469 "/>
<path style="fill:none;stroke-width:1.2;stroke-linecap:butt;stroke-linejoin:miter;stroke:rgb(0%,0%,0%);stroke-opacity:1;stroke-miterlimit:10;" d="M 128.832031 136.921875 L 152.96875 126.410156 "/>
<path style="fill:none;stroke-width:1.2;stroke-linecap:butt;stroke-linejoin:miter;stroke:rgb(0%,0%,0%);stroke-opacity:1;stroke-miterlimit:10;" d="M 152.96875 126.410156 L 174.136719 142.058594 "/>
<path style="fill:none;stroke-width:1.2;stroke-linecap:butt;stroke-linejoin:miter;stroke:rgb(0%,0%,0%);stroke-opacity:1;stroke-miterlimit:10;" d="M 151.402344 132.957031 L 168.339844 145.476562 "/>
<path style="fill:none;stroke-width:1.2;stroke-linecap:butt;stroke-linejoin:miter;stroke:rgb(0%,0%,0%);stroke-opacity:1;stroke-miterlimit:10;" d="M 174.136719 142.058594 L 198.273438 131.550781 "/>
<path style="fill:none;stroke-width:1.2;stroke-linecap:butt;stroke-linejoin:miter;stroke:rgb(0%,0%,0%);stroke-opacity:1;stroke-miterlimit:10;" d="M 201.351562 131.902344 L 202.835938 118.820312 "/>
<path style="fill:none;stroke-width:1.2;stroke-linecap:butt;stroke-linejoin:miter;stroke:rgb(100%,0%,0%);stroke-opacity:1;stroke-miterlimit:10;" d="M 202.835938 118.820312 L 204.320312 105.742188 "/>
<path style="fill:none;stroke-width:1.2;stroke-linecap:butt;stroke-linejoin:miter;stroke:rgb(0%,0%,0%);stroke-opacity:1;stroke-miterlimit:10;" d="M 195.195312 131.203125 L 196.679688 118.125 "/>
<path style="fill:none;stroke-width:1.2;stroke-linecap:butt;stroke-linejoin:miter;stroke:rgb(100%,0%,0%);stroke-opacity:1;stroke-miterlimit:10;" d="M 196.679688 118.125 L 198.164062 105.042969 "/>
<path style="fill:none;stroke-width:1.2;stroke-linecap:butt;stroke-linejoin:miter;stroke:rgb(0%,0%,0%);stroke-opacity:1;stroke-miterlimit:10;" d="M 198.273438 131.550781 L 219.445312 147.199219 "/>
<path style=" stroke:none;fill-rule:nonzero;fill:rgb(100%,100%,100%);fill-opacity:1;" d="M 197.242188 98.894531 L 206.242188 98.894531 L 206.242188 111.894531 L 197.242188 111.894531 Z M 197.242188 98.894531 "/>
<g style="fill:rgb(100%,0%,0%);fill-opacity:1;">
  <use xlink:href="#glyph0-5" x="197.242188" y="108.795898"/>
</g>
<path style="fill:none;stroke-width:1.2;stroke-linecap:butt;stroke-linejoin:miter;stroke:rgb(0%,0%,0%);stroke-opacity:1;stroke-miterlimit:10;" d="M 219.445312 147.199219 L 216.476562 173.359375 "/>
<path style="fill:none;stroke-width:1.2;stroke-linecap:butt;stroke-linejoin:miter;stroke:rgb(0%,0%,0%);stroke-opacity:1;stroke-miterlimit:10;" d="M 225.300781 150.515625 L 222.925781 171.441406 "/>
<path style="fill:none;stroke-width:1.2;stroke-linecap:butt;stroke-linejoin:miter;stroke:rgb(0%,0%,0%);stroke-opacity:1;stroke-miterlimit:10;" d="M 243.582031 136.691406 L 219.445312 147.199219 "/>
<path style="fill:none;stroke-width:1.2;stroke-linecap:butt;stroke-linejoin:miter;stroke:rgb(0%,0%,0%);stroke-opacity:1;stroke-miterlimit:10;" d="M 216.476562 173.359375 L 237.644531 189.007812 "/>
<path style="fill:none;stroke-width:1.2;stroke-linecap:butt;stroke-linejoin:miter;stroke:rgb(0%,0%,0%);stroke-opacity:1;stroke-miterlimit:10;" d="M 237.644531 189.007812 L 261.78125 178.496094 "/>
<path style="fill:none;stroke-width:1.2;stroke-linecap:butt;stroke-linejoin:miter;stroke:rgb(0%,0%,0%);stroke-opacity:1;stroke-miterlimit:10;" d="M 237.585938 182.277344 L 256.894531 173.867188 "/>
<path style="fill:none;stroke-width:1.2;stroke-linecap:butt;stroke-linejoin:miter;stroke:rgb(0%,0%,0%);stroke-opacity:1;stroke-miterlimit:10;" d="M 261.78125 178.496094 L 264.75 152.339844 "/>
<path style="fill:none;stroke-width:1.2;stroke-linecap:butt;stroke-linejoin:miter;stroke:rgb(0%,0%,0%);stroke-opacity:1;stroke-miterlimit:10;" d="M 264.75 152.339844 L 243.582031 136.691406 "/>
<path style="fill:none;stroke-width:1.2;stroke-linecap:butt;stroke-linejoin:miter;stroke:rgb(0%,0%,0%);stroke-opacity:1;stroke-miterlimit:10;" d="M 258.949219 155.753906 L 242.015625 143.238281 "/>
<path style="fill:none;stroke-width:1.2;stroke-linecap:butt;stroke-linejoin:miter;stroke:rgb(0%,0%,0%);stroke-opacity:1;stroke-miterlimit:10;" d="M 243.582031 136.691406 L 246.546875 110.53125 "/>
</g>
</svg>

<svg xmlns="http://www.w3.org/2000/svg" xmlns:xlink="http://www.w3.org/1999/xlink" width="300pt" height="300pt" viewBox="0 0 300 300"><defs><symbol overflow="visible"><path d="M.547 1.938V-7.75h5.5v9.688zm.625-.61h4.266v-8.47H1.171zm0 0"/></symbol><symbol overflow="visible" id="a"><path d="M7.078-7.406v1.156c-.367-.344-.758-.598-1.172-.766-.406-.164-.843-.25-1.312-.25-.918 0-1.62.282-2.11.844-.48.555-.718 1.36-.718 2.422 0 1.055.238 1.86.718 2.422.49.562 1.192.844 2.11.844.468 0 .906-.082 1.312-.25.414-.164.805-.422 1.172-.766v1.125c-.375.262-.777.46-1.203.594-.418.124-.867.186-1.344.186-1.21 0-2.163-.367-2.858-1.11C.972-1.703.625-2.718.625-4c0-1.29.348-2.305 1.047-3.047.695-.75 1.648-1.125 2.86-1.125.476 0 .93.07 1.36.203.424.126.82.314 1.186.564zm0 0"/></symbol><symbol overflow="visible" id="b"><path d="M1.03-8.36h1V0h-1zm0 0"/></symbol><symbol overflow="visible" id="c"><path d="M1.078-8.016h1.47l3.546 6.704v-6.704h1.062V0H5.688L2.124-6.703V0H1.078zm0 0"/></symbol><symbol overflow="visible" id="d"><path d="M1.078-8.016h1.094v3.282H6.11v-3.282h1.077V0H6.11v-3.813H2.17V0H1.078zm0 0"/></symbol><symbol overflow="visible" id="e"><path d="M4.328-7.28c-.78 0-1.406.296-1.875.89-.46.585-.687 1.382-.687 2.39 0 1.012.226 1.813.687 2.406.47.586 1.094.875 1.875.875.79 0 1.414-.288 1.875-.874.457-.593.688-1.394.688-2.406 0-1.008-.23-1.805-.687-2.39-.46-.594-1.086-.89-1.875-.89zm0-.892c1.125 0 2.024.383 2.703 1.14C7.708-6.28 8.048-5.27 8.048-4c0 1.262-.34 2.273-1.016 3.03C6.353-.22 5.454.157 4.33.157S2.3-.22 1.625-.97c-.668-.75-1-1.757-1-3.03 0-1.27.332-2.28 1-3.03.676-.76 1.578-1.142 2.703-1.142zm0 0"/></symbol></defs><g><path fill="#fff" d="M0 0h300v300H0z"/><path d="M192.34 183.867l-10.586-7.824" stroke-width="1.2" stroke="#0c0" stroke-miterlimit="10" fill="none"/><path d="M181.754 176.043l-10.586-7.824" stroke-width="1.2" stroke="#000" stroke-miterlimit="10" fill="none"/><path d="M187.34 177.367h11v13h-11zm0 0" fill="#fff"/><g fill="#0c0"><use xlink:href="#a" x="187.34" y="187.269"/><use xlink:href="#b" x="194.791" y="187.269"/></g><path d="M171.168 168.22l-24.137 10.507M166.285 163.59l-19.312 8.406M174.137 142.06l-2.97 26.16M147.03 178.727l-21.167-15.65M125.863 163.078l-12.07 5.254" stroke-width="1.2" stroke="#000" stroke-miterlimit="10" fill="none"/><path d="M113.793 168.332l-12.066 5.258" stroke-width="1.2" stroke="#00f" stroke-miterlimit="10" fill="none"/><path d="M125.863 163.078l2.97-26.156M132.316 161.16l2.37-20.926" stroke-width="1.2" stroke="#000" stroke-miterlimit="10" fill="none"/><path d="M101.727 173.59l-10.586-7.824" stroke-width="1.2" stroke="#00f" stroke-miterlimit="10" fill="none"/><path d="M91.14 165.766l-10.585-7.825" stroke-width="1.2" stroke="#000" stroke-miterlimit="10" fill="none"/><path d="M93.727 167.09h17v13h-17zm0 0" fill="#fff"/><g fill="#00f"><use xlink:href="#c" x="93.727" y="176.991"/><use xlink:href="#d" x="101.71" y="176.991"/></g><path d="M80.555 157.94l2.968-26.16M74.7 154.625l2.374-20.926M56.418 168.45l24.137-10.51M83.523 131.78l-21.168-15.647M62.355 116.133L38.22 126.64M62.414 122.863l-19.31 8.407M38.22 126.64l-2.97 26.16M35.25 152.8l21.168 15.65M41.05 149.383l16.934 12.52M56.418 168.45l-2.965 26.155M128.832 136.922l24.137-10.512M152.97 126.41l21.167 15.65M151.402 132.957l16.938 12.52M174.137 142.06l24.136-10.51M201.352 131.902l1.484-13.082" stroke-width="1.2" stroke="#000" stroke-miterlimit="10" fill="none"/><path d="M202.836 118.82l1.484-13.078" stroke-width="1.2" stroke="#f00" stroke-miterlimit="10" fill="none"/><path d="M195.195 131.203l1.485-13.078" stroke-width="1.2" stroke="#000" stroke-miterlimit="10" fill="none"/><path d="M196.68 118.125l1.484-13.082" stroke-width="1.2" stroke="#f00" stroke-miterlimit="10" fill="none"/><path d="M198.273 131.55l21.172 15.65" stroke-width="1.2" stroke="#000" stroke-miterlimit="10" fill="none"/><path d="M197.242 98.895h9v13h-9zm0 0" fill="#fff"/><use xlink:href="#e" x="197.242" y="108.796" fill="#f00"/><path d="M219.445 147.2l-2.968 26.16M225.3 150.516l-2.374 20.925M243.582 136.69l-24.137 10.51M216.477 173.36l21.168 15.648M237.645 189.008l24.136-10.512M237.586 182.277l19.31-8.41M261.78 178.496l2.97-26.156M264.75 152.34l-21.168-15.65M258.95 155.754l-16.934-12.516M243.582 136.69l2.965-26.16" stroke-width="1.2" stroke="#000" stroke-miterlimit="10" fill="none"/></g></svg>
